svg/fluentui-system-icons/ic_fluent_square_hint_24_filled.svg

<svg width="24" height="24" viewBox="0 0 24 24" fill="none" xmlns="http://www.w3.org/2000/svg">
<path d="M10 4C10 3.44772 10.4477 3 11 3H13C13.5523 3 14 3.44772 14 4C14 4.55228 13.5523 5 13 5H11C10.4477 5 10 4.55228 10 4ZM17.5 5C16.9477 5 16.5 4.55228 16.5 4C16.5 3.44772 16.9477 3 17.5 3C19.433 3 21 4.567 21 6.5C21 7.05228 20.5523 7.5 20 7.5C19.4477 7.5 19 7.05228 19 6.5C19 5.67157 18.3284 5 17.5 5ZM6.5 3C7.05228 3 7.5 3.44772 7.5 4C7.5 4.55228 7.05228 5 6.5 5C5.67157 5 5 5.67157 5 6.5C5 7.05228 4.55228 7.5 4 7.5C3.44772 7.5 3 7.05228 3 6.5C3 4.567 4.567 3 6.5 3ZM4 16.5C3.44772 16.5 3 16.9477 3 17.5C3 19.433 4.567 21 6.5 21C7.05228 21 7.5 20.5523 7.5 20C7.5 19.4477 7.05228 19 6.5 19C5.67157 19 5 18.3284 5 17.5C5 16.9477 4.55228 16.5 4 16.5ZM11 19C10.4477 19 10 19.4477 10 20C10 20.5523 10.4477 21 11 21H13C13.5523 21 14 20.5523 14 20C14 19.4477 13.5523 19 13 19H11ZM17.5 19C16.9477 19 16.5 19.4477 16.5 20C16.5 20.5523 16.9477 21 17.5 21C19.433 21 21 19.433 21 17.5C21 16.9477 20.5523 16.5 20 16.5C19.4477 16.5 19 16.9477 19 17.5C19 18.3284 18.3284 19 17.5 19ZM20 10C20.5523 10 21 10.4477 21 11V13C21 13.5523 20.5523 14 20 14C19.4477 14 19 13.5523 19 13V11C19 10.4477 19.4477 10 20 10ZM3 13C3 13.5523 3.44772 14 4 14C4.55228 14 5 13.5523 5 13V11C5 10.4477 4.55228 10 4 10C3.44772 10 3 10.4477 3 11V13Z" fill="#212121"/>
</svg>

<svg xmlns="http://www.w3.org/2000/svg" width="24" height="24"><path d="M10 4a1 1 0 0 1 1-1h2a1 1 0 1 1 0 2h-2a1 1 0 0 1-1-1Zm7.5 1a1 1 0 1 1 0-2A3.5 3.5 0 0 1 21 6.5a1 1 0 1 1-2 0A1.5 1.5 0 0 0 17.5 5Zm-11-2a1 1 0 0 1 0 2A1.5 1.5 0 0 0 5 6.5a1 1 0 0 1-2 0A3.5 3.5 0 0 1 6.5 3ZM4 16.5a1 1 0 0 0-1 1A3.5 3.5 0 0 0 6.5 21a1 1 0 1 0 0-2A1.5 1.5 0 0 1 5 17.5a1 1 0 0 0-1-1Zm7 2.5a1 1 0 1 0 0 2h2a1 1 0 1 0 0-2h-2Zm6.5 0a1 1 0 1 0 0 2 3.5 3.5 0 0 0 3.5-3.5 1 1 0 1 0-2 0 1.5 1.5 0 0 1-1.5 1.5Zm2.5-9a1 1 0 0 1 1 1v2a1 1 0 1 1-2 0v-2a1 1 0 0 1 1-1ZM3 13a1 1 0 1 0 2 0v-2a1 1 0 1 0-2 0v2Z"/></svg>
